app/assets/images/icons/active/female.svg

<?xml version="1.0" encoding="UTF-8" standalone="no"?>
<svg width="32px" height="232px" viewBox="0 0 32 232" version="1.1" xmlns="http://www.w3.org/2000/svg" xmlns:xlink="http://www.w3.org/1999/xlink" xmlns:sketch="http://www.bohemiancoding.com/sketch/ns">
    <title>female</title>
    <description>Created with Sketch (http://www.bohemiancoding.com/sketch)</description>
    <defs></defs>
    <g id="Graphics" stroke="none" stroke-width="1" fill="none" fill-rule="evenodd" sketch:type="MSPage">
        <path d="M22.3668626,137.191 C23.9924665,135.578 25.0020201,133.353 24.999997,130.898 C25.0020201,125.985 20.9718983,122 15.9989869,122 C13.5155659,122 11.2648076,122.994 9.63515747,124.605 C8.00753046,126.217 7,128.441 7,130.898 C7,135.36 10.3290991,139.051 14.6657287,139.686 L14.6657287,143.213 L9.92548001,143.213 L9.92548001,145.853 L14.6657287,145.853 L14.6657287,150 L17.3362914,150 L17.3362914,145.853 L22.0765401,145.853 L22.0765401,143.213 L17.3362914,143.213 L17.3362914,139.686 C19.2845882,139.398 21.0336045,138.506 22.3668626,137.191 C22.3668626,137.191 21.0336045,138.506 22.3668626,137.191 L22.3668626,137.191 L22.3668626,137.191 Z M11.2122057,130.898 C11.2122057,129.635 11.7099014,128.445 12.614251,127.551 C13.5196123,126.656 14.7203539,126.164 15.9989869,126.164 C17.2796431,126.164 18.4803847,126.658 19.3857459,127.551 C20.2880724,128.445 20.7857682,129.634 20.7857682,130.898 C20.7857682,132.162 20.2880724,133.35 19.3857459,134.244 C18.4803847,135.137 17.2796431,135.629 15.9989869,135.629 C14.7203539,135.629 13.5196123,135.137 12.614251,134.244 C11.7099014,133.35 11.2122057,132.162 11.2122057,130.898 L11.2122057,130.898 Z M11.2122057,130.898" id="female--white" fill="#206FAC" sketch:type="MSShapeGroup"></path>
        <path d="M22.3668626,97.191 C23.9924665,95.578 25.0020201,93.353 24.999997,90.898 C25.0020201,85.985 20.9718983,82 15.9989869,82 C13.5155659,82 11.2648076,82.994 9.63515747,84.605 C8.00753046,86.217 7,88.441 7,90.898 C7,95.36 10.3290991,99.051 14.6657287,99.686 L14.6657287,103.213 L9.92548001,103.213 L9.92548001,105.853 L14.6657287,105.853 L14.6657287,110 L17.3362914,110 L17.3362914,105.853 L22.0765401,105.853 L22.0765401,103.213 L17.3362914,103.213 L17.3362914,99.686 C19.2845882,99.398 21.0336045,98.506 22.3668626,97.191 C22.3668626,97.191 21.0336045,98.506 22.3668626,97.191 L22.3668626,97.191 L22.3668626,97.191 Z M11.2122057,90.898 C11.2122057,89.635 11.7099014,88.445 12.614251,87.551 C13.5196123,86.656 14.7203539,86.164 15.9989869,86.164 C17.2796431,86.164 18.4803847,86.658 19.3857459,87.551 C20.2880724,88.445 20.7857682,89.634 20.7857682,90.898 C20.7857682,92.162 20.2880724,93.35 19.3857459,94.244 C18.4803847,95.137 17.2796431,95.629 15.9989869,95.629 C14.7203539,95.629 13.5196123,95.137 12.614251,94.244 C11.7099014,93.35 11.2122057,92.162 11.2122057,90.898 L11.2122057,90.898 Z M11.2122057,90.898" id="female--subdued-grey" fill="#FFFFFF" sketch:type="MSShapeGroup"></path>
        <path d="M22.3668626,57.191 C23.9924665,55.578 25.0020201,53.353 24.999997,50.898 C25.0020201,45.985 20.9718983,42 15.9989869,42 C13.5155659,42 11.2648076,42.994 9.63515747,44.605 C8.00753046,46.217 7,48.441 7,50.898 C7,55.36 10.3290991,59.051 14.6657287,59.686 L14.6657287,63.213 L9.92548001,63.213 L9.92548001,65.853 L14.6657287,65.853 L14.6657287,70 L17.3362914,70 L17.3362914,65.853 L22.0765401,65.853 L22.0765401,63.213 L17.3362914,63.213 L17.3362914,59.686 C19.2845882,59.398 21.0336045,58.506 22.3668626,57.191 C22.3668626,57.191 21.0336045,58.506 22.3668626,57.191 L22.3668626,57.191 L22.3668626,57.191 Z M11.2122057,50.898 C11.2122057,49.635 11.7099014,48.445 12.614251,47.551 C13.5196123,46.656 14.7203539,46.164 15.9989869,46.164 C17.2796431,46.164 18.4803847,46.658 19.3857459,47.551 C20.2880724,48.445 20.7857682,49.634 20.7857682,50.898 C20.7857682,52.162 20.2880724,53.35 19.3857459,54.244 C18.4803847,55.137 17.2796431,55.629 15.9989869,55.629 C14.7203539,55.629 13.5196123,55.137 12.614251,54.244 C11.7099014,53.35 11.2122057,52.162 11.2122057,50.898 L11.2122057,50.898 Z M11.2122057,50.898" id="female--body-grey" fill="#67737B" sketch:type="MSShapeGroup"></path>
        <path d="M22.3668626,17.191 C23.9924665,15.578 25.0020201,13.353 24.999997,10.898 C25.0020201,5.985 20.9718983,2 15.9989869,2 C13.5155659,2 11.2648076,2.994 9.63515747,4.605 C8.00753046,6.217 7,8.441 7,10.898 C7,15.36 10.3290991,19.051 14.6657287,19.686 L14.6657287,23.213 L9.92548001,23.213 L9.92548001,25.853 L14.6657287,25.853 L14.6657287,30 L17.3362914,30 L17.3362914,25.853 L22.0765401,25.853 L22.0765401,23.213 L17.3362914,23.213 L17.3362914,19.686 C19.2845882,19.398 21.0336045,18.506 22.3668626,17.191 C22.3668626,17.191 21.0336045,18.506 22.3668626,17.191 L22.3668626,17.191 L22.3668626,17.191 Z M11.2122057,10.898 C11.2122057,9.635 11.7099014,8.445 12.614251,7.551 C13.5196123,6.656 14.7203539,6.164 15.9989869,6.164 C17.2796431,6.164 18.4803847,6.658 19.3857459,7.551 C20.2880724,8.445 20.7857682,9.634 20.7857682,10.898 C20.7857682,12.162 20.2880724,13.35 19.3857459,14.244 C18.4803847,15.137 17.2796431,15.629 15.9989869,15.629 C14.7203539,15.629 13.5196123,15.137 12.614251,14.244 C11.7099014,13.35 11.2122057,12.162 11.2122057,10.898 L11.2122057,10.898 Z M11.2122057,10.898" id="female--title-grey" fill="#3A434E" sketch:type="MSShapeGroup"></path>
    </g>
</svg>

<svg width="32" height="232" viewBox="0 0 32 232" xmlns="http://www.w3.org/2000/svg" xmlns:sketch="http://www.bohemiancoding.com/sketch/ns"><title>female</title><g sketch:type="MSPage" fill="none"><path d="M22.367 137.191c1.626-1.613 2.635-3.838 2.633-6.293.002-4.913-4.028-8.898-9.001-8.898-2.483 0-4.734.994-6.364 2.605-1.628 1.612-2.635 3.836-2.635 6.293 0 4.462 3.329 8.153 7.666 8.788v3.527h-4.74v2.64h4.74v4.147h2.671v-4.147h4.74v-2.64h-4.74v-3.527c1.948-.288 3.697-1.18 5.031-2.495zm-11.155-6.293c0-1.263.498-2.453 1.402-3.347.905-.895 2.106-1.387 3.385-1.387 1.281 0 2.481.494 3.387 1.387.902.894 1.4 2.083 1.4 3.347 0 1.264-.498 2.452-1.4 3.346-.905.893-2.106 1.385-3.387 1.385-1.279 0-2.479-.492-3.385-1.385-.904-.894-1.402-2.082-1.402-3.346zm0 0" fill="#206FAC" sketch:type="MSShapeGroup"/><path d="M22.367 97.191c1.626-1.613 2.635-3.838 2.633-6.293.002-4.913-4.028-8.898-9.001-8.898-2.483 0-4.734.994-6.364 2.605-1.628 1.612-2.635 3.836-2.635 6.293 0 4.462 3.329 8.153 7.666 8.788v3.527h-4.74v2.64h4.74v4.147h2.671v-4.147h4.74v-2.64h-4.74v-3.527c1.948-.288 3.697-1.18 5.031-2.495zm-11.155-6.293c0-1.263.498-2.453 1.402-3.347.905-.895 2.106-1.387 3.385-1.387 1.281 0 2.481.494 3.387 1.387.902.894 1.4 2.083 1.4 3.347 0 1.264-.498 2.452-1.4 3.346-.905.893-2.106 1.385-3.387 1.385-1.279 0-2.479-.492-3.385-1.385-.904-.894-1.402-2.082-1.402-3.346zm0 0" fill="#fff" sketch:type="MSShapeGroup"/><path d="M22.367 57.191c1.626-1.613 2.635-3.838 2.633-6.293.002-4.913-4.028-8.898-9.001-8.898-2.483 0-4.734.994-6.364 2.605-1.628 1.612-2.635 3.836-2.635 6.293 0 4.462 3.329 8.153 7.666 8.788v3.527h-4.74v2.64h4.74v4.147h2.671v-4.147h4.74v-2.64h-4.74v-3.527c1.948-.288 3.697-1.18 5.031-2.495zm-11.155-6.293c0-1.263.498-2.453 1.402-3.347.905-.895 2.106-1.387 3.385-1.387 1.281 0 2.481.494 3.387 1.387.902.894 1.4 2.083 1.4 3.347 0 1.264-.498 2.452-1.4 3.346-.905.893-2.106 1.385-3.387 1.385-1.279 0-2.479-.492-3.385-1.385-.904-.894-1.402-2.082-1.402-3.346zm0 0" fill="#67737B" sketch:type="MSShapeGroup"/><path d="M22.367 17.191c1.626-1.613 2.635-3.838 2.633-6.293.002-4.913-4.028-8.898-9.001-8.898-2.483 0-4.734.994-6.364 2.605-1.628 1.612-2.635 3.836-2.635 6.293 0 4.462 3.329 8.153 7.666 8.788v3.527h-4.74v2.64h4.74v4.147h2.671v-4.147h4.74v-2.64h-4.74v-3.527c1.948-.288 3.697-1.18 5.031-2.495zm-11.155-6.293c0-1.263.498-2.453 1.402-3.347.905-.895 2.106-1.387 3.385-1.387 1.281 0 2.481.494 3.387 1.387.902.894 1.4 2.083 1.4 3.347 0 1.264-.498 2.452-1.4 3.346-.905.893-2.106 1.385-3.387 1.385-1.279 0-2.479-.492-3.385-1.385-.904-.894-1.402-2.082-1.402-3.346zm0 0" fill="#3A434E" sketch:type="MSShapeGroup"/></g></svg>
